X: 32011
T: Peeler's Jacket, The
R: reel
M: 4/4
K: Gmajor
|:G2BG DGBG|FGAB c2 (3ABc|dggf d2 (3efg|fdcA dBcA|
G2BG DGBG|FGAB c2 (3ABc|dggf d2 (3efg|fdcA BG G2:|
|:g3f d3f|g3a bgaf|g3f d2 (3efg|fdcA dBcA|
g3f d3f|g3a bgaf|gbag fdeg|1 fdcA BG G2:|2 fdcA dBcA||

